assets/icons/qvision/stars.svg

<svg xmlns="http://www.w3.org/2000/svg" height="24" viewBox="0 0 24 24" width="24"><path d="M0 0h24v24H0z" fill="none"/><path d="M11.99 2C6.47 2 2 6.48 2 12s4.47 10 9.99 10C17.52 22 22 17.52 22 12S17.52 2 11.99 2zm4.24 16L12 15.45 7.77 18l1.12-4.81-3.73-3.23 4.92-.42L12 5l1.92 4.53 4.92.42-3.73 3.23L16.23 18z"/></svg>

<svg width="24" height="24" viewBox="0 0 24 24" fill="none" xmlns="http://www.w3.org/2000/svg">
<g clip-path="url(#clip0_147_4780)">
<path d="M11.99 2C6.47 2 2 6.48 2 12C2 17.52 6.47 22 11.99 22C17.52 22 22 17.52 22 12C22 6.48 17.52 2 11.99 2ZM16.23 18L12 15.45L7.77 18L8.89 13.19L5.16 9.96L10.08 9.54L12 5L13.92 9.53L18.84 9.95L15.11 13.18L16.23 18Z" fill="#323232"/>
</g>
<defs>
<clipPath id="clip0_147_4780">
<rect width="24" height="24" fill="white"/>
</clipPath>
</defs>
</svg>
